build/img/icons/phone.svg

<svg width="16" height="16" viewBox="0 0 16 16" fill="none" xmlns="http://www.w3.org/2000/svg">
<path d="M12.5141 9.79833C11.927 9.25005 11.1585 9.26001 10.5315 9.76666C10.3673 9.89875 10.2221 10.0544 10.0715 10.2027C9.21582 11.0496 9.20675 11.0622 8.22408 10.3421C6.8939 9.36767 5.77331 8.20237 4.96667 6.67064C5.35865 6.2997 5.7597 5.95409 6.12083 5.57048C6.75688 4.89283 6.76505 4.05323 6.12718 3.3792C5.48386 2.69884 4.8224 2.03476 4.13735 1.39601C3.45774 0.762695 2.62297 0.783504 1.93882 1.41592C1.59493 1.73348 1.28916 2.09176 0.939823 2.40389C0.100519 3.15392 -0.114524 4.09847 0.0524291 5.15882C0.115944 5.55872 0.207587 5.96133 0.345505 6.34132C1.59584 9.79471 3.87784 12.4121 6.96376 14.3564C8.15784 15.1082 9.4227 15.7162 10.8382 15.9388C11.6884 16.0727 12.5186 16.0193 13.1928 15.4204C13.7109 14.9599 14.1981 14.4586 14.6527 13.9357C15.1826 13.3259 15.1744 12.5017 14.6273 11.9145C13.9468 11.1862 13.2418 10.4787 12.5141 9.79833ZM13.8542 13.4833C13.4731 13.8905 13.0821 14.2904 12.6774 14.6749C12.1457 15.1806 11.486 15.1444 10.8382 15.0223C9.33831 14.74 8.02265 14.028 6.79318 13.1667C4.25893 11.3907 2.33987 9.11072 1.2574 6.18751C1.06595 5.67091 0.982469 5.11449 0.849088 4.57708C0.885382 3.99714 1.07683 3.53029 1.48968 3.14216C1.84174 2.81102 2.16838 2.45456 2.52044 2.12342C2.91332 1.75429 3.19823 1.74434 3.58295 2.11619C4.22355 2.73412 4.85234 3.36473 5.47025 4.00619C5.78329 4.33099 5.77059 4.62412 5.4512 4.95978C5.10822 5.32077 4.76161 5.68086 4.38778 6.00837C4.00124 6.34765 3.9831 6.71045 4.19905 7.1393C4.95397 8.64026 6.07818 9.82999 7.39022 10.8478C7.86386 11.2151 8.40464 11.4974 8.92093 11.8078C9.263 12.014 9.58148 11.9652 9.86549 11.6802C10.2384 11.3056 10.6086 10.9292 10.9915 10.5646C11.3681 10.2064 11.6439 10.2027 12.0105 10.5601C12.6266 11.1609 13.2363 11.7679 13.8379 12.3832C14.2208 12.7767 14.2253 13.0861 13.8542 13.4833ZM15.9602 6.84345C16.0282 7.15739 16.0555 7.48038 15.6453 7.56C15.2525 7.6369 15.1463 7.36729 15.0674 7.03344C14.287 3.73657 12.24 1.70091 8.92456 0.946357C8.62604 0.878502 8.37379 0.755457 8.43822 0.424323C8.47179 0.251518 8.67594 0.110378 8.76668 0C9.90178 0.180948 10.8572 0.504844 11.7374 1.02145C13.993 2.34599 15.4085 4.28484 15.9602 6.84345ZM8.30211 3.33668C8.34204 3.15302 8.55708 3.00735 8.68955 2.84993C9.19223 3.01097 9.59237 3.10326 9.96167 3.2652C11.6076 3.98447 12.6347 5.22939 13.0567 6.97102C13.1338 7.28858 13.1419 7.61157 12.7527 7.70295C12.3671 7.79342 12.2482 7.52019 12.1647 7.18815C11.7138 5.3841 10.5823 4.25499 8.7567 3.84062C8.47179 3.77548 8.23678 3.63705 8.30211 3.33668Z" fill="white"/>
</svg>

<svg width="16" height="16" fill="none" xmlns="http://www.w3.org/2000/svg"><path d="M12.514 9.798c-.587-.548-1.355-.538-1.982-.031-.165.132-.31.287-.46.436-.856.847-.865.86-1.848.14-1.33-.975-2.45-2.14-3.257-3.672.392-.371.793-.717 1.154-1.1.636-.678.644-1.518.006-2.192a44.654 44.654 0 00-1.99-1.983c-.68-.633-1.514-.612-2.198.02-.344.317-.65.676-1 .988-.838.75-1.054 1.694-.887 2.755.064.4.156.802.294 1.182 1.25 3.454 3.532 6.071 6.618 8.015 1.194.752 2.459 1.36 3.874 1.583.85.134 1.68.08 2.355-.519a16.25 16.25 0 001.46-1.484c.53-.61.521-1.434-.026-2.021a44.333 44.333 0 00-2.113-2.117zm1.34 3.685a28.56 28.56 0 01-1.177 1.192c-.531.506-1.191.47-1.839.347-1.5-.282-2.815-.994-4.045-1.855C4.26 11.39 2.34 9.11 1.257 6.187 1.066 5.672.982 5.115.85 4.578c.036-.58.228-1.047.64-1.435.353-.331.68-.687 1.031-1.019.393-.369.678-.379 1.063-.007.64.618 1.27 1.249 1.887 1.89.313.325.3.618-.019.954-.343.36-.69.72-1.063 1.048-.387.34-.405.702-.189 1.131.755 1.501 1.88 2.691 3.191 3.709.474.367 1.015.65 1.53.96.343.206.661.157.945-.128.373-.374.744-.75 1.127-1.115.376-.359.652-.362 1.018-.005.617.6 1.226 1.208 1.828 1.823.383.394.387.703.016 1.1zm2.106-6.64c.068.314.095.637-.315.717-.393.077-.499-.193-.578-.527-.78-3.296-2.827-5.332-6.142-6.087-.299-.067-.551-.19-.487-.522.034-.172.238-.314.329-.424 1.135.18 2.09.505 2.97 1.021 2.256 1.325 3.671 3.264 4.223 5.822zM8.302 3.337c.04-.184.255-.33.388-.487.502.161.902.253 1.272.415 1.646.72 2.673 1.964 3.095 3.706.077.318.085.64-.304.732-.386.09-.505-.183-.588-.515-.451-1.804-1.583-2.933-3.408-3.347-.285-.066-.52-.204-.455-.504z" fill="#fff"/></svg>
